X: 25647
T: Martin Riley's
R: reel
M: 4/4
K: Gmajor
G,B,~B,2 CEGE|EDB,D GBdB|c2ec dBGB|AcBG AGED|
G,B,DB, CEGE|EDB,D GBdB|c2ec dBGB|1 ABGA BGG2:|2 ABGA BGGA||
|:ABdB eBdB|~G3B ABGE|EDB,D GBdB|ceef gfed|
ABdB eBdB|~G3B ABGE|EDB,D GBdB|1 cedc BGGA:|2 cedc BGG2||

